assets/images/trevor.svg

<?xml version="1.0" encoding="UTF-8"?>
<svg preserveAspectRatio="none" width="182px" height="219px" viewBox="0 0 182 219" version="1.1" xmlns="http://www.w3.org/2000/svg" xmlns:xlink="http://www.w3.org/1999/xlink">
    <!-- Generator: Sketch 43.1 (39012) - http://www.bohemiancoding.com/sketch -->
    <title>Group 5</title>
    <desc>Created with Sketch.</desc>
    <defs></defs>
    <g id="Page-1" stroke="none" stroke-width="1" fill="none" fill-rule="evenodd">
        <g id="Group-5" transform="translate(1.000000, 1.000000)" stroke="#000000">
            <path vector-effect="non-scaling-stroke" d="M24.4026312,133.338551 C25.0186583,155.5731 28.6749824,144.460366 43.6534016,183.764594 C58.338855,222.300063 117.88439,216.341038 123.127504,216.341038 C128.370618,216.341038 166.522995,185.551953 168.288313,150.864152 C169.400711,129.005976 171.087639,129.050883 176.621745,122.488806 C186.932244,110.263113 170.814856,35.6481587 164.280709,31.9575536 C151.039192,24.4785039 152.224528,35.5264312 139.624023,37.9840675 C133.391916,39.1995943 100.729557,40.4282009 94.4615449,41.4424385 C90.7088731,42.0496646 85.2685935,61.5810268 65.1238326,74.0513635 C44.9790717,86.5217002 39.2396386,80.2378821 26.7089995,83.2464643 C17.4209521,85.4765065 23.0695677,105.391625 23.0556125,116.433913 C23.0472629,123.040649 23.0556125,136.878024 18.9897555,134.868917 C7.65803697,129.26945 35.4156095,111.017288 35.4307892,111.362521 C36.1343655,127.364042 42.1859079,146.959974 65.1238326,145.396722 C88.0617573,143.833469 90.0911609,123.093415 91.1871042,119.467376 C91.7221155,117.697236 90.0413868,111.244268 89.4588848,109.489184 C88.317127,106.049057 79.3191527,117.464478 58.2121974,119.467376 C44.4095756,120.777145 40.7531922,105.459446 36.2953036,107.816318 C35.7379562,108.110985 78.3440172,78.9194351 90.4542669,113.09749 C91.7259026,116.686353 92.3478959,108.951256 96.4850532,108.383787 C100.622211,107.816318 101.314689,116.742655 103.323607,114.241328 C104.600237,112.651782 105.158785,125.626204 109.430719,130.957973 C115.400714,138.409081 126.155229,139.318546 134.475715,138.698515 C148.75007,137.634812 156.251664,126.794798 156.251664,109.489184 C156.251664,101.569608 145.388829,92.3654958 134.475715,91.7296335 C121.541828,90.9760289 108.025446,100.145212 105.184469,107.816318 C103.024348,113.649001 99.9991577,92.6149258 106.007917,91.0083373 C111.363692,89.5763405 163.50007,90.2756432 168.288313,92.8744667 C169.83007,93.7112566 169.665751,100.664568 168.288313,99.5783378 C164.730181,96.7724383 149.918107,57.5848045 145.735864,48.9405934" id="Path-9"></path>
            <path vector-effect="non-scaling-stroke" d="M134.831402,33.6212555 C136.702642,25.6213413 158.003535,24.4662066 152.057115,16.9169239 C134.053451,-5.93964124 88.0255152,-1.39387708 64.0406451,7.42352611 C41.9506203,15.5443395 29.5007911,26.4766893 14.3066815,41.3153192 C-6.93710005,62.0620836 -1.73025476,122.280435 12.620678,135.573175" id="Path-10"></path>
            <path vector-effect="non-scaling-stroke" d="M13.167068,134.803769 C13.2558468,135.164977 17.0582245,163.093952 24.2509801,165.564412 C25.3069964,165.927117 26.5861269,166.03067 27.6006855,165.564412 C28.8143474,165.006654 29.8434436,163.926139 30.4285327,162.725414 C30.6181411,162.336298 29.6539226,162.338853 29.2666176,162.145572" id="Path-12"></path>
            <path vector-effect="non-scaling-stroke" d="M97.9763878,136 C97.9024976,143.055146 94,146.545306 97.9763878,150.470323 C101.952776,154.39534 111.000769,152.766178 116.617307,158.681835 C125.136841,167.655091 101.759513,177.53792 94,176.282636" id="Path-11"></path>
            <path vector-effect="non-scaling-stroke" d="M87.2446104,180.965084 C118.447566,181.466657 117.455323,187.745687 130.231025,165.911498" id="Path-13"></path>
        </g>
    </g>
</svg>

<svg preserveAspectRatio="none" width="182" height="219" viewBox="0 0 182 219" xmlns="http://www.w3.org/2000/svg"><title>Group 5</title><g fill="none" fill-rule="evenodd"><g transform="translate(1 1)" stroke="#000"><path vector-effect="non-scaling-stroke" d="M24.403 133.339c.616 22.234 4.272 11.121 19.25 50.426 14.686 38.535 74.231 32.576 79.475 32.576 5.243 0 43.395-30.789 45.16-65.477 1.113-21.858 2.8-21.813 8.334-28.375 10.31-12.226-5.807-86.84-12.341-90.531-13.242-7.48-12.056 3.568-24.657 6.026-6.232 1.216-38.894 2.444-45.162 3.458-3.753.608-9.193 20.139-29.338 32.61-20.145 12.47-25.884 6.186-38.415 9.194-9.288 2.23-3.64 22.146-3.653 33.188-.009 6.607 0 20.444-4.066 18.435-11.332-5.6 16.426-23.852 16.44-23.506.704 16.001 6.756 35.597 29.694 34.034 22.938-1.564 24.967-22.304 26.063-25.93.535-1.77-1.146-8.223-1.728-9.978-1.142-3.44-10.14 7.975-31.247 9.978-13.802 1.31-17.459-14.008-21.917-11.65-.557.294 42.049-28.898 54.16 5.28 1.27 3.59 1.893-4.146 6.03-4.713 4.137-.568 4.83 8.359 6.839 5.857 1.276-1.59 1.835 11.385 6.107 16.717 5.97 7.451 16.724 8.36 25.045 7.74 14.274-1.063 21.776-11.903 21.776-29.209 0-7.92-10.863-17.124-21.776-17.76-12.934-.753-26.45 8.416-29.292 16.087-2.16 5.833-5.185-15.201.824-16.808 5.356-1.432 57.492-.732 62.28 1.866 1.542.837 1.378 7.79 0 6.704-3.558-2.806-18.37-41.993-22.552-50.637"/><path vector-effect="non-scaling-stroke" d="M134.831 33.621c1.872-8 23.173-9.155 17.226-16.704C134.053-5.94 88.026-1.393 64.041 7.424c-22.09 8.12-34.54 19.053-49.734 33.891C-6.937 62.062-1.73 122.28 12.62 135.573"/><path vector-effect="non-scaling-stroke" d="M13.167 134.804c.089.361 3.891 28.29 11.084 30.76 1.056.363 2.335.467 3.35 0 1.213-.557 2.242-1.638 2.828-2.839.19-.389-.775-.386-1.162-.58M97.977 136c-.075 7.055-3.977 10.545 0 14.47 3.976 3.925 13.024 2.296 18.64 8.212 8.52 8.973-14.857 18.856-22.617 17.6m-6.755 4.683c31.203.502 30.21 6.78 42.986-15.054"/></g></g></svg>
